!!!COM: Anon.
!!!OTL: Circa Mundi Vesperam
!!!SCA: Folio 373-373'
!!!YOR: from 'Thirty-Five Conductus for Two and Three Voices', p.132
!!!YOR: edited by Janet Knapp, Collegium Musicum No. 6, Yale University (1965)
!!!YOR: from the School of Notre Dame; circa 1170-1240
!!!YOO: Yale University
!!!YOY: 1965
!! NOTE: The first rather than alternate ending has been encoded.
**kern	**kern
*M6/8	*M6/8
=1	=1
4c	4G
8d	8G
8c	4F
8B	.
8A	8A
=2	=2
4G	8c
.	16c
.	16B
8G	8A
4G	4G
8r	8r
=3	=3
4B	4E
8c	8F
8B	4G
8A	.
8G	8G
=4	=4
4F	4A
8F	8B
4F	8c
.	8c
8r	8B
=5	=5
4A	4A
8B	8G
8A	8A
8G	8B
8F	8A
=6	=6
4.G	4.G
4.r	4.r
=7	=7
4A	4A
8G	8G
4E	4B
8F	8c
=8	=8
8G	4d
8F	.
8E	8c
4D	4d
8r	8r
=9	=9
4D	4d
8E	8c
4F	8B
.	8A
8G	8G
=10	=10
8G	8G
8F	8F
8G	8E
4A	4D
8r	8r
=11	=11
4G	4C
8A	8D
4F	8F
.	8E
8A	8D
=12	=12
8c	8F
8B	8E
8A	8F
4G	4G
8r	8r
=13	=13
4c	4c
8d	8B
8c	4c
8B	.
8A	8e
=14	=14
4G	4d
8G	8c
4G	4d
8r	8r
=15	=15
4B	4B
8c	8G
8B	4B
8A	.
8G	8d
=16	=16
4F	8c
.	8A
8F	8B
4F	4c
8r	8r
=17	=17
4A	4e
8B	8d
8A	8c
8G	8B
8F	8A
=18	=18
4.G	4.G
4.r	4.r
=19	=19
8A	8A
8A	8A
8G	8G
4E	4B
8F	8c
=20	=20
8G	4d
8F	.
8E	8c
4D	4d
8r	8r
=21	=21
4D	4.d
8E	.
4F	4c
8G	8d
=22	=22
8G	4c
8F	.
8G	8B
4A	4A
8r	8r
=23	=23
4G	4d
8A	8A
4F	4c
8A	8A
=24	=24
8c	8c
8B	8B
8A	8c
4G	4d
8r	8r
=25	=25
4G	8d
.	8B
8r	8c
4G	8d
.	8B
8r	8c
=26	=26
8G	4d
8F	.
8A	8r
4G	8d
.	8B
8r	8c
=27	=27
8G	8d
8F	8B
8G	8G
8A	16B
.	16A
8B	8B
8A	8c
=28	=28
4G	4d
8r	8r
4c	8c
.	8B
8r	8A
=29	=29
4B	8B
.	8A
8r	8G
8A	8A
8G	8G
8A	8F
=30	=30
4B	4E
8r	8r
4c	8F
.	8G
8r	8A
=31	=31
4B	8B
.	8A
8r	8G
8A	8A
8G	8B
8A	8c
=32	=32
4G	4d
8r	8r
4F	8c
.	8B
8r	8A
=33	=33
4E	8B
.	8c
8r	8A
8G	4G
8G	.
8A	8r
=34	=34
8B	8B
8A	8A
8G	8B
8F	8c
8F	8d
8E	8e
=35	=35
4.F	4.c
4.r	4.r
=36	=36
[2.F	8c
.	8d
.	8e
.	8f
.	8e
.	8f
=37	=37
2.F_	16f
.	16e
.	16d
.	16c
.	16B
.	16A
.	4.G
=38	=38
4.F]	4.A
4G	4G
8r	8r
==	==
*-	*-
!!!ENC: David Huron
!!!YEC: Copyright 1987, David Huron
!!!EEV: 1.0
